dist/icons/svgs/object-group-solid.svg

<svg xmlns="http://www.w3.org/2000/svg" width="24" height="24" fill="currentcolor" class="icon-object-group-solid" viewBox="0 0 24 24">
  <path d="M2.5 6.6875C1.71875 6.25781 1.25 5.4375 1.25 4.5C1.25 3.13281 2.34375 2 3.75 2C4.64844 2 5.46875 2.50781 5.89844 3.25H19.0625C19.4922 2.50781 20.3125 2 21.25 2C22.6172 2 23.75 3.13281 23.75 4.5C23.75 5.4375 23.2422 6.25781 22.5 6.6875V17.3516C23.2422 17.7812 23.75 18.6016 23.75 19.5C23.75 20.9062 22.6172 22 21.25 22C20.3125 22 19.4922 21.5312 19.0625 20.75H5.89844C5.46875 21.5312 4.64844 22 3.75 22C2.34375 22 1.25 20.9062 1.25 19.5C1.25 18.6016 1.71875 17.7812 2.5 17.3516V6.6875ZM19.0625 5.75H5.89844C5.66406 6.14062 5.35156 6.45312 5 6.6875V17.3516C5.35156 17.5859 5.66406 17.8984 5.89844 18.25H19.0625C19.2969 17.8984 19.6094 17.5859 20 17.3516V6.6875C19.6094 6.45312 19.2969 6.14062 19.0625 5.75ZM6.25 8.25C6.25 7.58594 6.79688 7 7.5 7H12.5C13.1641 7 13.75 7.58594 13.75 8.25V12C13.75 12.7031 13.1641 13.25 12.5 13.25H7.5C6.79688 13.25 6.25 12.7031 6.25 12V8.25ZM11.25 14.5H12.5C13.8672 14.5 15 13.4062 15 12V10.75H17.5C18.1641 10.75 18.75 11.3359 18.75 12V15.75C18.75 16.4531 18.1641 17 17.5 17H12.5C11.7969 17 11.25 16.4531 11.25 15.75V14.5Z"/>
</svg>

<svg xmlns="http://www.w3.org/2000/svg" width="24" height="24" fill="currentColor" class="icon-object-group-solid" viewBox="0 0 24 24">
  <path d="M2.5 6.688c-.781-.43-1.25-1.25-1.25-2.188 0-1.367 1.094-2.5 2.5-2.5.898 0 1.719.508 2.148 1.25h13.165A2.53 2.53 0 0 1 21.25 2c1.367 0 2.5 1.133 2.5 2.5 0 .938-.508 1.758-1.25 2.188v10.664c.742.43 1.25 1.25 1.25 2.148 0 1.406-1.133 2.5-2.5 2.5-.937 0-1.758-.469-2.187-1.25H5.898A2.43 2.43 0 0 1 3.75 22a2.47 2.47 0 0 1-2.5-2.5 2.43 2.43 0 0 1 1.25-2.148zm16.563-.938H5.898c-.234.39-.546.703-.898.938v10.664c.352.234.664.546.898.898h13.165a2.95 2.95 0 0 1 .937-.898V6.688a2.7 2.7 0 0 1-.937-.938M6.25 8.25C6.25 7.586 6.797 7 7.5 7h5c.664 0 1.25.586 1.25 1.25V12c0 .703-.586 1.25-1.25 1.25h-5c-.703 0-1.25-.547-1.25-1.25zm5 6.25h1.25c1.367 0 2.5-1.094 2.5-2.5v-1.25h2.5c.664 0 1.25.586 1.25 1.25v3.75c0 .703-.586 1.25-1.25 1.25h-5c-.703 0-1.25-.547-1.25-1.25z"/>
</svg>
